X:2236
T:The Lord my Pasture
C:James Kewley, Agneash, Laxey, at 77
C:Traditional
O:Isle of Man
Z:Clague collection
B:Kiaull Vannin #236 
L:1/4
M:4/4 
K:G 
d2 dd|d2 f2|(g-f) (e-d)|(c2-B2)|d2 ^cB|A2 d2|f2 e2|d4:|
d2 BA|G2 B2|A2 G2|(F2-E2)|G2 FE|D2 G2|B2 A2|G4||

